X:55
T: Der Gluecksjaeger
N: Q0134B
O: Mitteleuropa, Deutschland (BRD) , Baden, Freiburg i. Br., Hugstetten
N: Dritte Zeile = Refrain auf sinnfreie Silben.
R: Ballade, Jagd, Flucht, Verfuehrung
M: 6/8
L: 1/16
K: G
A2 | A3AA2A2G2F2 | G2E2D2z4
A2 | A3AA2A2G2F2 | G2E2D2
G2G2G2 | D2D2D2G2G2G2 | D2D2
DBB2B2B2 | B2A2G2A2B2A2 | G6z4
